m3u.svg

<svg xmlns="http://www.w3.org/2000/svg" viewBox="0 0 285 285">
  <g transform="translate(0, 300) scale(0.05, -0.05)">
    <path fill="#000000" d="M15.6709,10.1102h1.2948v3.4331q0,0.7096 0.2018,1.0165 0.2051,0.303 0.6659,0.303 0.4641,0 0.6659,-0.303 0.2051,-0.3069 0.2051,-1.0165v-3.4331h1.2948v3.4331q0,1.216 -0.5347,1.8105 -0.5347,0.5946 -1.6311,0.5946 -1.093,0 -1.6277,-0.5946 -0.5347,-0.5946 -0.5347,-1.8105z M13.458,12.7493q0.5078,0.1496 0.7701,0.5217 0.2657,0.3682 0.2657,0.9398 0,0.8516 -0.5717,1.2965 -0.5717,0.4411 -1.6681,0.4411 -0.3867,0 -0.7769,-0.0729 -0.3867,-0.069 -0.7668,-0.211v-1.1393q0.3632,0.2071 0.7197,0.3145 0.3598,0.1036 0.7062,0.1036 0.5145,0 0.787,-0.2033 0.2758,-0.2033 0.2758,-0.5831 0,-0.3913 -0.2825,-0.5907 -0.2791,-0.2033 -0.8273,-0.2033h-0.5179v-0.9513h0.5448q0.4876,0 0.7264,-0.1726 0.2388,-0.1765 0.2388,-0.5332 0,-0.3299 -0.232,-0.5102 -0.232,-0.1803 -0.6558,-0.1803 -0.3128,0 -0.6323,0.0806 -0.3195,0.0806 -0.6356,0.2378l-0.3444,-1.0436q0.3834,-0.1227 0.76,-0.1841 0.3767,-0.0614 0.7399,-0.0614 0.9786,0 1.4629,0.3682 0.4876,0.3644 0.4876,1.1009 0,0.5025 -0.232,0.8247 -0.232,0.3184 -0.6861,0.4488z M4.0213,10.1102h1.6479l1.1434,3.0649 1.1502,-3.0649h1.6445v5.727h-1.2241v-4.1888l-1.1569,3.0879h-0.8206l-1.1568,-3.0879v4.1888h-1.2276z M10,4h-6c-1.1,0 -1.99,0.9 -1.99,2l-0.01,12c0,1.1 0.9,2 2,2h16c1.1,0 2,-0.9 2,-2v-10c0,-1.1 -0.9,-2 -2,-2h-8z" stroke="#000000" stroke-width="0.033" />
  </g>
</svg>

<?xml version="1.0" encoding="UTF-8"?>
<svg width="24" height="24" viewBox="0 0 24 24" fill="none" xmlns="http://www.w3.org/2000/svg">
    <path d="M15.671 10.11H17.0658V13.5431C17.0658 14.2527 17.2676 14.5596 17.4727 14.8626 17.6768 15.1656 18.1376 15.1656 18.6017 15.1656 19.0658 15.1656 19.2676 14.8626 19.4727 14.5596 19.6778 14.2527 19.6778 13.5431L19.6778 10.11H20.9726V13.5431C20.9726 14.7591 20.4379 15.3536 19.9032 15.9482 19.3685 16.5428 18.2755 16.5428 17.1721 16.5428 16.0687 16.5428 15.534 15.9482 14.9993 15.3536 14.4646 14.7591 14.4646 13.5431L14.4646 10.11H15.671ZM13.458 12.7493Q13.9658 12.8989 14.2281 13.271 14.4938 13.6392 14.4938 14.2108 14.4938 15.0624 13.9221 15.5073 13.3504 15.9484 12.254 15.9484 11.8673 15.9484 11.4771 15.8755 11.0904 15.8065 10.7103 15.6645L10.7103 14.5252Q11.0735 14.7323 11.43 14.8397 11.7898 14.9433 12.1362 14.9433 12.6507 14.9433 12.9232 14.74 13.199 14.5367 13.199 14.1569 13.199 13.7656 12.9169 13.5662 12.6378 13.3629 12.0896 13.3629L11.5717 13.3629V12.4116L12.1165 12.4116Q12.6041 12.4116 12.8429 12.2351 13.0817 12.0586 13.0817 11.7019 13.0817 11.372 12.8497 11.1917 12.6177 11.0114 12.1939 11.0114 11.8811 11.0114 11.5616 11.092 11.2421 11.1726 10.926 11.3298L10.926 10.2522Q11.3094 10.1295 11.6861 10.0681 12.0628 10.0067 12.426 10.0067 13.4046 10.0067 13.8889 10.3749 14.3765 10.7393 14.3765 11.4758 14.3765 11.9783 14.1445 12.3005 13.9125 12.6189 13.4584 12.7493ZM4.0213 10.11H5.6692L6.8126 13.1749 7.9628 10.11H9.6073V15.837L8.3832 15.837V11.6484L7.2263 14.7363H6.4057L5.2489 11.6484V15.8372H4.0213V10.11Z" fill="black"/>
    <path d="M10 4H4C2.9 4 1.99 4.9 1.99 6H2L2 18C2 19.1 2.9 20 4 20H20C21.1 20 22 19.1 22 18V8C22 6.9 21.1 6 20 6H12L10 4Z" fill="black"/>
</svg>
